!! 00000] TT[WS
!!!OTL: Nian gaomian
!!!ARE: Asia, China, Shanxi Hequ
!! Ethnic Group: Han
!! WII, 95
!!!SCT: J0541
!!!YEM: Copyright 1995, estate of Helmut Schaffrath.
**kern
*ICvox
*Ivox
*M2/4
*k[b-]
*F:
{4cc
8a
8g
=1
4cc
8a
8g
=2
16a
16r
16g
16r
16a
16r
16g
16r
=3
8ff
8dd
8cc
8a
=4
8.g
16f
8d
8f
=5
2g}
=6
{8cc
8a
4cc
=7
8a
8cc
8a
8cc
=8
4g
4g
=9
8.e
16d
8e
8g
=10
2c}
=11
{8g
8e
8g
8e
=12
16e
16e
16e
16d
4c
=13
8g
8e
8g
8e
=14
16e
16e
16e
16d
4c}
=15
{8.g
16a
8cc
8ee
=16
8dd
8cc
4g
=17
8.e
16d
8.e
16d
=18
4.c
8d
=19
8c
8d
4c}
==
!!!AGN: Xiaodiao. Qingge, Sichun
!!!ONB: ESAC (Essen Associative Code) Database: CHINA
!!!AMT: simple duple
!!!AIN: vox
!!!EED: Helmut Schaffrath
!!!EEV: 1.0
*-
